src/assets/images/c.svg

<svg width="256" height="288" xmlns="http://www.w3.org/2000/svg" preserveAspectRatio="xMidYMid"><path d="M255.987 85.672c-.002-4.843-1.037-9.122-3.129-12.794-2.055-3.612-5.134-6.638-9.262-9.032-34.081-19.67-68.195-39.28-102.264-58.97-9.185-5.307-18.091-5.114-27.208.27-13.565 8.008-81.481 46.956-101.719 58.689C4.071 68.665.015 76.056.013 85.663 0 125.221.013 164.777 0 204.336c.002 4.736.993 8.932 2.993 12.55 2.056 3.72 5.177 6.83 9.401 9.278 20.239 11.733 88.164 50.678 101.726 58.688 9.121 5.387 18.027 5.579 27.215.27 34.07-19.691 68.186-39.3 102.272-58.97 4.224-2.447 7.345-5.559 9.401-9.276 1.997-3.618 2.99-7.814 2.992-12.551 0 0 0-79.094-.013-118.653" fill="#A9B9CB"/><path d="M141.101 5.134c-9.17-5.294-18.061-5.101-27.163.269C100.395 13.39 32.59 52.237 12.385 63.94 4.064 68.757.015 76.129.013 85.711 0 125.166.013 164.62 0 204.076c.002 4.724.991 8.909 2.988 12.517 2.053 3.711 5.169 6.813 9.386 9.254a9008.51 9008.51 0 0020.159 11.62L219.625 50.375c-26.178-15.074-52.363-30.136-78.524-45.241" fill="#7F8B99"/><path d="M154.456 126.968l39.839.281c0-16.599-16.802-57.249-64.973-57.249-30.691 0-71.951 19.512-71.951 75.61 0 56.097 40.447 74.39 71.951 74.39 51.017 0 63.21-35.302 63.21-55.252l-38.007-2.173s1.017 23.075-25.406 23.075c-24.39 0-28.46-29.878-28.46-40.04 0-15.447 5.493-40.244 28.46-40.244 22.968 0 25.337 21.602 25.337 21.602" fill="#FFF"/></svg>

<?xml version="1.0" encoding="UTF-8" standalone="no"?>
<svg width="256px" height="288px" viewBox="0 0 256 288" version="1.1" xmlns="http://www.w3.org/2000/svg" xmlns:xlink="http://www.w3.org/1999/xlink" preserveAspectRatio="xMidYMid">
	<g>
		<path d="M255.987,85.672 C255.985,80.829 254.95,76.55 252.858,72.878 C250.803,69.266 247.724,66.24 243.596,63.846 C209.515,44.176 175.401,24.566 141.332,4.876 C132.147,-0.431 123.241,-0.238 114.124,5.146 C100.559,13.154 32.643,52.102 12.405,63.835 C4.071,68.665 0.015,76.056 0.013,85.663 C0,125.221 0.013,164.777 0,204.336 C0.002,209.072 0.993,213.268 2.993,216.886 C5.049,220.606 8.17,223.716 12.394,226.164 C32.633,237.897 100.558,276.842 114.12,284.852 C123.241,290.239 132.147,290.431 141.335,285.122 C175.405,265.431 209.521,245.822 243.607,226.152 C247.831,223.705 250.952,220.593 253.008,216.876 C255.005,213.258 255.998,209.062 256,204.325 C256,204.325 256,125.231 255.987,85.672" fill="#A9B9CB"></path>
		<path d="M141.101,5.134 C131.931,-0.16 123.04,0.033 113.938,5.403 C100.395,13.39 32.59,52.237 12.385,63.94 C4.064,68.757 0.015,76.129 0.013,85.711 C0,125.166 0.013,164.62 0,204.076 C0.002,208.8 0.991,212.985 2.988,216.593 C5.041,220.304 8.157,223.406 12.374,225.847 C17.003,228.528 24.133,232.635 32.533,237.467 L219.625,50.375 C193.447,35.301 167.262,20.239 141.101,5.134" fill="#7F8B99"></path>
		<path d="M154.456,126.968 L194.295,127.249 C194.295,110.65 177.493,70 129.322,70 C98.631,70 57.371,89.512 57.371,145.61 C57.371,201.707 97.818,220 129.322,220 C180.339,220 192.532,184.698 192.532,164.748 L154.525,162.575 C154.525,162.575 155.542,185.65 129.119,185.65 C104.729,185.65 100.659,155.772 100.659,145.61 C100.659,130.163 106.152,105.366 129.119,105.366 C152.087,105.366 154.456,126.968 154.456,126.968" fill="#FFFFFF"></path>
	</g>
</svg>
